X:554
T: "Die Beruhigte"
N: Z1234
O: Europa, Mitteleuropa, Oesterreich
R: Liebes - Lied
M: 3/4
L: 1/8
K: G
G2BDGB | d2gGB2 |
A2cDF2 | G2BDG2 |
G2BDGB | d2gGB2 |
A2ccA2 | G2
BBG2 | A2ccA2 | G2
BBG2 | A2ccA2 | G4
dd | g2dBcB | G2z4

@@@ Tune index: 10312
